X: 10081
T: JENNY'S BAWBEE
Q: "Reel."
%R: reel
B: W. Hamilton "Universal Tune-Book" Vol. 1 Glasgow 1844 p.8 #1
S: http://imslp.org/wiki/Hamilton's_Universal_Tune-Book_(Various)
Z: 2016 John Chambers <jc:trillian.mit.edu>
M: C
L: 1/8
K: D
% - - - - - - - - - - - - - - - - - - - - - - - - -
f |\
a>bag fddf | gBd>c cAAf |\
a>bag fddf | B/B/B (cA) d2d :|\
f |\
f>dg>e fddf | gBed cAA(g |
f)dge fddf | B/B/B (cA) d2dg |\
f>dg>e fddf | g<Be>d cAAg |\
fdge fdfa | B/B/B (cA) d2-d |]
% - - - - - - - - - - - - - - - - - - - - - - - - -

%%sep 1 1 500
%%sep 1 1 500

